packages/assets/static/images/icons/bold/mail--bold.svg

<svg width="24" height="24" viewBox="0 0 24 24" xmlns="http://www.w3.org/2000/svg">
<path d="M21.5 4.125H3.5C3.20163 4.125 2.91548 4.24353 2.7045 4.4545C2.49353 4.66548 2.375 4.95163 2.375 5.25V18C2.375 18.4973 2.57254 18.9742 2.92417 19.3258C3.27581 19.6775 3.75272 19.875 4.25 19.875H20.75C21.2473 19.875 21.7242 19.6775 22.0758 19.3258C22.4275 18.9742 22.625 18.4973 22.625 18V5.25C22.625 4.95163 22.5065 4.66548 22.2955 4.4545C22.0845 4.24353 21.7984 4.125 21.5 4.125ZM12.5 11.9738L6.39219 6.375H18.6078L12.5 11.9738ZM9.19906 12L4.625 16.1925V7.8075L9.19906 12ZM10.8641 13.5262L11.7397 14.3297C11.9472 14.52 12.2185 14.6255 12.5 14.6255C12.7815 14.6255 13.0528 14.52 13.2603 14.3297L14.1359 13.5262L18.6078 17.625H6.39219L10.8641 13.5262ZM15.8009 12L20.375 7.8075V16.1925L15.8009 12Z"/>
</svg>

<svg viewBox="0 0 24 24" xmlns="http://www.w3.org/2000/svg" aria-hidden="true" fill="currentColor"><path d="M21.5 4.125h-18A1.125 1.125 0 0 0 2.375 5.25V18a1.875 1.875 0 0 0 1.875 1.875h16.5A1.875 1.875 0 0 0 22.625 18V5.25A1.125 1.125 0 0 0 21.5 4.125m-9 7.849L6.392 6.375h12.216zM9.2 12l-4.575 4.192V7.808zm1.664 1.526.876.804a1.125 1.125 0 0 0 1.52 0l.876-.804 4.472 4.099H6.392zM15.801 12l4.574-4.192v8.385z"/></svg>
